X: 1
T:Blarney Pilgrim, The
N:Setting from, and transcribed by, Alan Ng. Chord symbols added by Dave Fallow
Z: id:ng-jigs-27 transcribed by Alan Ng agng@facstaff.wisc.edu 27 Jan. 2001
R:jig
M:6/8
K:DMix
DED DEG|ABA ABc|BAG AGE|GEc E{G}ED|\
DED DEG|ABA ABc|BAG AGE|GED D3:|*
E:10
|:~d3 dBG|AGA BGE|d3 dBG|AGA G2B|\
g2e d2B|AGA BGE|B2G AGE|DGG G3:|*
E:9
|:ADD BDD|ADD ABc|BAG AGE|GEc E{G}ED|\
ADD BDD|ADD ABc|BAG AGE|GED D3:|**
